X:1
T:Seria's Gate - Prologue
T:Seria's Gate - Prologue
T:Where My Journey Start
%%score { 1 | 2 }
L:1/8
Q:1/4=115
M:4/4
K:C
V:1 treble nm="Piano" snm="Pno."
V:2 bass 
V:1
|:"^\n" [EAe]de [CEA]3 ed | [DGe] G2 [GAg]2 ede | [EGd]2 [Ec] [DB]3 cd | [DE^Gd]2 c [EAd]2 e3 | %4
 [CF]4- [CF]EF[Gc] | [Gc]2 [Gcg] [Ff]3 [Ece][FBd]- | [FBd]3 [Gce] EFGc | [Ada]c'g'f' [EGc]e'c'g | %8
 [EAce]de [CEA]3 ed | [DGe] G2 [Gg]2 ede | [Gd]2 e f3 gf- | f2 g [A^ce]2 [EA]3 | %12
 [ff']6 [ee'][cc'] | [cc'][Aa]3/2[cc']3/2 [ff']3/2[ee']3/2[cc'] | %14
 [ff']2 G [Gc]2 [dfg][ge'][dbd']- | [dbd']g[dbd'] [c'g']2 c' [Bg]c/c'/4b/4 | [cg]2 C D2 E2 G | %17
 [cec']3 [Bdb]3 [GBg]2 |[Q:1/4=110]"^Andante" !arpeggio![GAcg]c'/g/ d' [gg']2 c'<gg | %19
 !arpeggio![Acg][cc']/g/ d' [gag']2 c e/A/d | [GBdg]c'/g/ d'[gg'] [GBd][gc']bg' | %21
 [egc']!8va(!c''/b'/ g'/!8va)!g/[dbd'] [cg]B[GBg]d | [Acg]c'/g/ d' [gg']2 [cgd'] [gc']<c | %23
 [FAc]3/2[Fcf]3/2 [cegc']2 [cegc']3/2[Acdga]3/2 | [GBdg]c'/g/ [dd'][gg']>g[dc'] [Bb][gc'] | %25
 [cegc']3 [dgbd'] g<G [egc'e']g | !arpeggio![Acf]A/e/ c'[cf] c2 [Af]/E/[Fe]/A/ | %27
 [Acf][cg]c'[ee'] c'[Ae] a/[df]/b | !arpeggio![Bdgb]c'/d/ d'g' dc'/g/ b[dc'] | %29
 [DGBd]3 [EAce]3 [GBg]2 |!8va(! [gg']c'd'g' c'd'g'c'- | c'c'd'g' c'd'g'c'- | c'c'd'g' bc'g'c'- | %33
 c'c'd'g' [c'c''][bb'][aa'][bb']!8va)! :| %34
V:2
|: F,,C,G, F,4- F, | G,,D,A, [G,D]4- [G,D] | E,, G,4 B,G,^G, | [C,,E,]3 [A,C]2 CG,C, | %4
 D,,F,G, C2 G,D,D,, | G,,D,B, A,2 G,,G,B, | C,,G,,B,, C,4- C, | [G,,,G,,]4 [C,,C,]4 | %8
 F,,C,G, F,4- F, | G,,D,A, [G,D]2 G,,D,G,, | E,,E,G, D2 E,[G,E][F,D] | A,,E,E [A,^C]2 [A,C]G,,A,, | %12
 D,,A,D, [E,C]2 F,2 D, | F,,[F,CFG]/F,[CFA]3/2 [D,D]C/E/ D,[F,A,F] | G,,D,G, C4 D | %15
 [G,F]D,G,, [D,C]2 C,[G,B,]D, | [C,,C,] G,4 CC,G,, | [C,,C,]3 [B,,,B,,]3 [G,,,G,,]2 | %18
 F,,C,<F,C FCF,[C,C] | F,,C,<F, [C,F,C]2 C3/2A,3/2 | [A,,G,]D,<[G,,G,]D, G,DG,D, | %21
 [G,,,G,,]G,,/D,,/ G,,, [B,,,B,,]2 G,/A,/ [C,G,]/A,/A,/G,/ | %22
 F,,C,<[F,,F,]F,, [C,F,C][G,CGA]3/2[G,CGA]3/2 | [F,,F,]F,,<[G,,D,]A,, [F,A,]F,,<F,,D,/D,,/ | %24
 G,,D,<G,,G,, [D,G,B,]D<G,G,,/D,,/ | [C,,G,,C,]G,<C, [D,,G,,D,]3 [E,,E,]2 | %26
"_dim." [D,,D,]3/2A,,3/2[D,,D,] [D,F,A,]>G, A,D,, | [A,,A,]3/2D,,3/2A,,, [D,A,]4 | %28
 [G,,,G,,]3/2[G,,G,]3/2[AB] [G,DG][A,DA]3/2[B,,G,B,]3/2 | %29
 [G,,,G,,]>G,, G,,,[A,,,A,,] A,,/E,[A,,E,]/ E,,2 |!mp! [F,,A,]C,/G,G/A, [C,G,]A,/G/ C[G,G] | %31
 F,,G,/DG/C G/G/D/G/ C[G,G] | G,,G,/B,G/B, [DG]/B,G/ B,[G,D] | %33
 G,,"_cresc."G, D<[B,G] G>G B,[G,G] :| %34

